assets/images/percent.svg

<?xml version="1.0" encoding="UTF-8"?>
<svg id="Layer_1" xmlns="http://www.w3.org/2000/svg" version="1.1" viewBox="0 0 20 20">
  <!-- Generator: Adobe Illustrator 29.8.2, SVG Export Plug-In . SVG Version: 2.1.1 Build 3)  -->
  <path d="M14.5,11c1.93,0,3.5,1.57,3.5,3.5s-1.57,3.5-3.5,3.5-3.5-1.57-3.5-3.5,1.57-3.5,3.5-3.5ZM14.19,2.42c.32-.45.95-.55,1.39-.23.45.32.55.95.23,1.39l-10,14c-.32.45-.95.55-1.39.23-.45-.32-.55-.95-.23-1.39L14.19,2.42ZM14.5,13c-.83,0-1.5.67-1.5,1.5s.67,1.5,1.5,1.5,1.5-.67,1.5-1.5-.67-1.5-1.5-1.5ZM5.5,2c1.93,0,3.5,1.57,3.5,3.5s-1.57,3.5-3.5,3.5-3.5-1.57-3.5-3.5,1.57-3.5,3.5-3.5ZM5.5,4c-.83,0-1.5.67-1.5,1.5s.67,1.5,1.5,1.5,1.5-.67,1.5-1.5-.67-1.5-1.5-1.5Z"/>
</svg>

<svg xmlns="http://www.w3.org/2000/svg" viewBox="0 0 20 20"><path d="M14.5 11c1.93 0 3.5 1.57 3.5 3.5S16.43 18 14.5 18 11 16.43 11 14.5s1.57-3.5 3.5-3.5m-.31-8.58a.995.995 0 1 1 1.62 1.16l-10 14a.995.995 0 1 1-1.62-1.16zM14.5 13c-.83 0-1.5.67-1.5 1.5s.67 1.5 1.5 1.5 1.5-.67 1.5-1.5-.67-1.5-1.5-1.5m-9-11C7.43 2 9 3.57 9 5.5S7.43 9 5.5 9 2 7.43 2 5.5 3.57 2 5.5 2m0 2C4.67 4 4 4.67 4 5.5S4.67 7 5.5 7 7 6.33 7 5.5 6.33 4 5.5 4"/></svg>
